X: 82
T: Pollonesse #82
M: 3/4
L: 1/16
K: D
Q:120
g2|:fafd eaec dfdA|BdBd cece d4|ABcd efge gfed|cdBc ABAG F2g2|
fafd eaec dfdA|BdBd cece d4|ABcd efge gfed|1cdec d4 D2 g2:|2cdec d4 D2 a2|]
|:afdA F2a2 bagf|gecA E2g2 g4|fdfa g2f2 e2d2|cdBc ABAG F2g2|
fafd eaec dfdA|BdBd cece d4|ABcd efge gfed|1cdec d4 D2 a2:|2cdec d4 D4|]

